assets/img/img-pages/fran/ground.svg

<svg width="84" height="84" viewBox="0 0 84 84" fill="none" xmlns="http://www.w3.org/2000/svg">
<g filter="url(#filter0_d)">
<path fill-rule="evenodd" clip-rule="evenodd" d="M42.0002 15.1205L75.3068 34.3484L42.0002 53.5763L8.69356 34.3484L42.0002 15.1205ZM42.0002 13.1538L43.7035 14.1371L77.0102 33.3651L78.7135 34.3484L77.0102 35.3317L69.5956 39.6121L77.7961 44.3463L78.6478 44.8379L77.7961 45.3296L42.764 65.5536L41.9124 66.0453L41.0607 65.5536L6.02863 45.3296L5.17697 44.8379L6.02863 44.3463L14.3169 39.5614L6.99024 35.3317L5.28692 34.3484L6.99024 33.3651L40.2969 14.1371L42.0002 13.1538ZM16.0203 40.5447L8.58361 44.8379L41.9124 64.0786L75.2411 44.8379L67.8923 40.5954L43.7035 54.5596L42.0002 55.543L40.2969 54.5596L16.0203 40.5447ZM74.3429 51.1911C73.8601 51.4698 73.0774 51.4698 72.5946 51.1911C72.1118 50.9124 72.1118 50.4606 72.5946 50.1819C73.0774 49.9032 73.8601 49.9032 74.3429 50.1819C74.8256 50.4606 74.8256 50.9124 74.3429 51.1911ZM76.0911 53.2097C76.5739 53.4884 77.3566 53.4884 77.8394 53.2097C78.3221 52.931 78.3221 52.4791 77.8394 52.2004C77.3566 51.9217 76.5739 51.9217 76.0911 52.2004C75.6083 52.4791 75.6083 52.931 76.0911 53.2097ZM70.8464 53.2097C70.3636 53.4884 69.5809 53.4884 69.0981 53.2097C68.6153 52.931 68.6153 52.4791 69.0981 52.2004C69.5809 51.9217 70.3636 51.9217 70.8464 52.2004C71.3291 52.4791 71.3291 52.931 70.8464 53.2097ZM72.5946 55.2282C73.0774 55.5069 73.8601 55.5069 74.3429 55.2282C74.8256 54.9495 74.8256 54.4976 74.3429 54.2189C73.8601 53.9402 73.0774 53.9402 72.5946 54.2189C72.1118 54.4976 72.1118 54.9495 72.5946 55.2282ZM67.3498 55.2282C66.8671 55.5069 66.0844 55.5069 65.6016 55.2282C65.1188 54.9495 65.1188 54.4976 65.6016 54.2189C66.0844 53.9402 66.8671 53.9402 67.3498 54.2189C67.8326 54.4976 67.8326 54.9495 67.3498 55.2282ZM69.0981 57.2467C69.5809 57.5254 70.3636 57.5254 70.8464 57.2467C71.3291 56.968 71.3291 56.5162 70.8464 56.2375C70.3636 55.9588 69.5809 55.9588 69.0981 56.2375C68.6153 56.5162 68.6153 56.968 69.0981 57.2467ZM63.8534 57.2467C63.3706 57.5254 62.5879 57.5254 62.1051 57.2467C61.6223 56.968 61.6223 56.5162 62.1051 56.2375C62.5879 55.9588 63.3706 55.9588 63.8534 56.2375C64.3361 56.5162 64.3361 56.968 63.8534 57.2467ZM65.6016 59.2653C66.0844 59.544 66.8671 59.544 67.3498 59.2653C67.8326 58.9866 67.8326 58.5347 67.3498 58.256C66.8671 57.9773 66.0844 57.9773 65.6016 58.256C65.1188 58.5347 65.1188 58.9866 65.6016 59.2653ZM60.3568 59.2653C59.8741 59.544 59.0914 59.544 58.6086 59.2653C58.1258 58.9866 58.1258 58.5347 58.6086 58.256C59.0914 57.9773 59.8741 57.9773 60.3568 58.256C60.8396 58.5347 60.8396 58.9866 60.3568 59.2653ZM62.1051 61.2838C62.5879 61.5625 63.3706 61.5625 63.8534 61.2838C64.3361 61.0051 64.3361 60.5532 63.8534 60.2745C63.3706 59.9958 62.5879 59.9958 62.1051 60.2745C61.6223 60.5532 61.6223 61.0051 62.1051 61.2838ZM56.8603 61.2838C56.3776 61.5625 55.5949 61.5625 55.1121 61.2838C54.6293 61.0051 54.6293 60.5532 55.1121 60.2745C55.5949 59.9958 56.3776 59.9958 56.8603 60.2745C57.3431 60.5532 57.3431 61.0051 56.8603 61.2838ZM58.6086 63.3023C59.0914 63.581 59.8741 63.581 60.3568 63.3023C60.8396 63.0236 60.8396 62.5718 60.3568 62.2931C59.8741 62.0144 59.0914 62.0144 58.6086 62.2931C58.1258 62.5718 58.1258 63.0236 58.6086 63.3023ZM53.3638 63.3023C52.8811 63.581 52.0984 63.581 51.6156 63.3023C51.1328 63.0236 51.1328 62.5718 51.6156 62.2931C52.0984 62.0144 52.8811 62.0144 53.3638 62.2931C53.8466 62.5718 53.8466 63.0236 53.3638 63.3023ZM55.1121 65.3209C55.5949 65.5996 56.3776 65.5996 56.8603 65.3209C57.3431 65.0421 57.3431 64.5903 56.8603 64.3116C56.3776 64.0329 55.5949 64.0329 55.1121 64.3116C54.6293 64.5903 54.6293 65.0421 55.1121 65.3209ZM49.8673 65.3208C49.3846 65.5996 48.6018 65.5996 48.1191 65.3208C47.6363 65.0421 47.6363 64.5903 48.1191 64.3116C48.6018 64.0329 49.3846 64.0329 49.8673 64.3116C50.3501 64.5903 50.3501 65.0421 49.8673 65.3208ZM51.6156 67.3394C52.0984 67.6181 52.8811 67.6181 53.3638 67.3394C53.8466 67.0607 53.8466 66.6088 53.3638 66.3301C52.8811 66.0514 52.0984 66.0514 51.6156 66.3301C51.1328 66.6088 51.1328 67.0607 51.6156 67.3394ZM46.3708 67.3394C45.8881 67.6181 45.1053 67.6181 44.6226 67.3394C44.1398 67.0607 44.1398 66.6088 44.6226 66.3301C45.1053 66.0514 45.8881 66.0514 46.3708 66.3301C46.8536 66.6088 46.8536 67.0607 46.3708 67.3394ZM48.1191 69.3579C48.6018 69.6366 49.3846 69.6366 49.8673 69.3579C50.3501 69.0792 50.3501 68.6274 49.8673 68.3487C49.3846 68.07 48.6018 68.07 48.1191 68.3487C47.6363 68.6274 47.6363 69.0792 48.1191 69.3579ZM11.4058 51.1911C10.923 51.4698 10.1403 51.4698 9.65755 51.1911C9.17479 50.9124 9.17479 50.4606 9.65755 50.1819C10.1403 49.9032 10.923 49.9032 11.4058 50.1819C11.8886 50.4606 11.8886 50.9124 11.4058 51.1911ZM13.1541 53.2097C13.6368 53.4884 14.4195 53.4884 14.9023 53.2097C15.3851 52.931 15.3851 52.4791 14.9023 52.2004C14.4195 51.9217 13.6368 51.9217 13.1541 52.2004C12.6713 52.4791 12.6713 52.931 13.1541 53.2097ZM18.3988 55.2282C17.916 55.5069 17.1333 55.5069 16.6506 55.2282C16.1678 54.9495 16.1678 54.4976 16.6506 54.2189C17.1333 53.9402 17.916 53.9402 18.3988 54.2189C18.8816 54.4976 18.8816 54.9495 18.3988 55.2282ZM20.1471 57.2467C20.6298 57.5254 21.4125 57.5254 21.8953 57.2467C22.3781 56.968 22.3781 56.5162 21.8953 56.2375C21.4125 55.9588 20.6298 55.9588 20.1471 56.2375C19.6643 56.5162 19.6643 56.968 20.1471 57.2467ZM25.3918 59.2653C24.909 59.544 24.1263 59.544 23.6436 59.2653C23.1608 58.9866 23.1608 58.5347 23.6436 58.256C24.1263 57.9773 24.909 57.9773 25.3918 58.256C25.8746 58.5347 25.8746 58.9866 25.3918 59.2653ZM27.1401 61.2838C27.6228 61.5625 28.4056 61.5625 28.8883 61.2838C29.3711 61.0051 29.3711 60.5532 28.8883 60.2745C28.4056 59.9958 27.6228 59.9958 27.1401 60.2745C26.6573 60.5532 26.6573 61.0051 27.1401 61.2838ZM32.3848 63.3023C31.9021 63.581 31.1193 63.581 30.6366 63.3023C30.1538 63.0236 30.1538 62.5718 30.6366 62.2931C31.1193 62.0144 31.9021 62.0144 32.3848 62.2931C32.8676 62.5718 32.8676 63.0236 32.3848 63.3023ZM34.1331 65.3208C34.6158 65.5995 35.3986 65.5995 35.8813 65.3208C36.3641 65.0421 36.3641 64.5903 35.8813 64.3116C35.3986 64.0329 34.6158 64.0329 34.1331 64.3116C33.6503 64.5903 33.6503 65.0421 34.1331 65.3208ZM39.3778 67.3394C38.8951 67.6181 38.1123 67.6181 37.6296 67.3394C37.1468 67.0607 37.1468 66.6088 37.6296 66.3301C38.1123 66.0514 38.8951 66.0514 39.3778 66.3301C39.8606 66.6088 39.8606 67.0607 39.3778 67.3394ZM41.1261 69.3579C41.6088 69.6366 42.3916 69.6366 42.8743 69.3579C43.3571 69.0792 43.3571 68.6274 42.8743 68.3487C42.3916 68.07 41.6088 68.07 41.1261 68.3487C40.6433 68.6274 40.6433 69.0792 41.1261 69.3579ZM46.3708 71.3764C45.8881 71.6552 45.1053 71.6552 44.6226 71.3764C44.1398 71.0977 44.1398 70.6459 44.6226 70.3672C45.1053 70.0885 45.8881 70.0885 46.3708 70.3672C46.8536 70.6459 46.8536 71.0977 46.3708 71.3764ZM6.16105 53.2097C6.64382 53.4884 7.42654 53.4884 7.9093 53.2097C8.39207 52.931 8.39207 52.4791 7.9093 52.2004C7.42654 51.9217 6.64382 51.9217 6.16105 52.2004C5.67828 52.4791 5.67828 52.931 6.16105 53.2097ZM11.4058 55.2282C10.923 55.5069 10.1403 55.5069 9.65755 55.2282C9.17479 54.9495 9.17479 54.4976 9.65755 54.2189C10.1403 53.9402 10.923 53.9402 11.4058 54.2189C11.8886 54.4976 11.8886 54.9495 11.4058 55.2282ZM13.1541 57.2467C13.6368 57.5254 14.4195 57.5254 14.9023 57.2467C15.3851 56.968 15.3851 56.5162 14.9023 56.2375C14.4195 55.9588 13.6368 55.9588 13.1541 56.2375C12.6713 56.5162 12.6713 56.968 13.1541 57.2467ZM18.3988 59.2653C17.916 59.544 17.1333 59.544 16.6506 59.2653C16.1678 58.9866 16.1678 58.5347 16.6506 58.256C17.1333 57.9773 17.916 57.9773 18.3988 58.256C18.8816 58.5347 18.8816 58.9866 18.3988 59.2653ZM20.1471 61.2838C20.6298 61.5625 21.4125 61.5625 21.8953 61.2838C22.3781 61.0051 22.3781 60.5532 21.8953 60.2745C21.4125 59.9958 20.6298 59.9958 20.1471 60.2745C19.6643 60.5532 19.6643 61.0051 20.1471 61.2838ZM25.3918 63.3023C24.909 63.581 24.1263 63.581 23.6436 63.3023C23.1608 63.0236 23.1608 62.5718 23.6436 62.2931C24.1263 62.0144 24.909 62.0144 25.3918 62.2931C25.8746 62.5718 25.8746 63.0236 25.3918 63.3023ZM27.1401 65.3208C27.6228 65.5995 28.4056 65.5995 28.8883 65.3208C29.3711 65.0421 29.3711 64.5903 28.8883 64.3116C28.4056 64.0329 27.6228 64.0329 27.1401 64.3116C26.6573 64.5903 26.6573 65.0421 27.1401 65.3208ZM32.3848 67.3394C31.9021 67.6181 31.1193 67.6181 30.6366 67.3394C30.1538 67.0607 30.1538 66.6088 30.6366 66.3301C31.1193 66.0514 31.9021 66.0514 32.3848 66.3301C32.8676 66.6088 32.8676 67.0607 32.3848 67.3394ZM34.1331 69.3579C34.6158 69.6366 35.3986 69.6366 35.8813 69.3579C36.3641 69.0792 36.3641 68.6274 35.8813 68.3487C35.3986 68.07 34.6158 68.07 34.1331 68.3487C33.6503 68.6274 33.6503 69.0792 34.1331 69.3579ZM39.3778 71.3764C38.8951 71.6551 38.1123 71.6551 37.6296 71.3764C37.1468 71.0977 37.1468 70.6459 37.6296 70.3672C38.1123 70.0885 38.8951 70.0885 39.3778 70.3672C39.8606 70.6459 39.8606 71.0977 39.3778 71.3764ZM41.1261 73.395C41.6088 73.6737 42.3916 73.6737 42.8743 73.395C43.3571 73.1163 43.3571 72.6644 42.8743 72.3857C42.3916 72.107 41.6088 72.107 41.1261 72.3857C40.6433 72.6644 40.6433 73.1163 41.1261 73.395Z" fill="#1D3557"/>
</g>
<defs>
<filter id="filter0_d" x="-3.95789" y="0.0419922" width="91.9161" height="91.9161" filterUnits="userSpaceOnUse" color-interpolation-filters="sRGB">
<feFlood flood-opacity="0" result="BackgroundImageFix"/>
<feColorMatrix in="SourceAlpha" type="matrix" values="0 0 0 0 0 0 0 0 0 0 0 0 0 0 0 0 0 0 127 0" result="hardAlpha"/>
<feOffset dy="4"/>
<feGaussianBlur stdDeviation="2"/>
<feColorMatrix type="matrix" values="0 0 0 0 0 0 0 0 0 0 0 0 0 0 0 0 0 0 0.25 0"/>
<feBlend mode="normal" in2="BackgroundImageFix" result="effect1_dropShadow"/>
<feBlend mode="normal" in="SourceGraphic" in2="effect1_dropShadow" result="shape"/>
</filter>
</defs>
</svg>

<svg width="84" height="84" fill="none" xmlns="http://www.w3.org/2000/svg"><g filter="url(#a)"><path fill-rule="evenodd" clip-rule="evenodd" d="m42 15.12 33.307 19.228L42 53.576 8.694 34.348 42 15.121Zm0-1.966 1.703.983L77.01 33.365l1.703.983-1.703.984-7.414 4.28 8.2 4.734.852.492-.852.492-35.032 20.224-.852.491-.851-.491L6.029 45.33l-.852-.492.852-.492 8.288-4.785-7.327-4.23-1.703-.983 1.703-.983 33.307-19.228L42 13.154Zm-25.98 27.39-7.436 4.294 33.328 19.24 33.33-19.24-7.35-4.243L43.704 54.56 42 55.543l-1.703-.983L16.02 40.545Zm58.323 10.647c-.483.279-1.266.279-1.748 0-.483-.279-.483-.73 0-1.01.482-.278 1.265-.278 1.748 0 .483.28.483.731 0 1.01Zm1.748 2.019c.483.278 1.266.278 1.748 0 .483-.279.483-.73 0-1.01-.482-.278-1.265-.278-1.748 0-.483.28-.483.731 0 1.01Zm-5.245 0c-.482.278-1.265.278-1.748 0-.483-.279-.483-.73 0-1.01.483-.278 1.266-.278 1.748 0 .483.28.483.731 0 1.01Zm1.749 2.018c.482.279 1.265.279 1.748 0 .483-.279.483-.73 0-1.01-.483-.278-1.266-.278-1.748 0-.483.28-.483.731 0 1.01Zm-5.245 0c-.483.279-1.266.279-1.748 0-.483-.279-.483-.73 0-1.01.482-.278 1.265-.278 1.748 0 .483.28.483.731 0 1.01Zm1.748 2.019c.483.278 1.266.278 1.748 0 .483-.279.483-.73 0-1.01-.482-.278-1.265-.278-1.748 0-.483.28-.483.731 0 1.01Zm-5.245 0c-.482.278-1.265.278-1.748 0-.483-.279-.483-.73 0-1.01.483-.278 1.266-.278 1.748 0 .483.28.483.731 0 1.01Zm1.749 2.018c.482.279 1.265.279 1.748 0 .483-.278.483-.73 0-1.009-.483-.279-1.266-.279-1.748 0-.483.279-.483.73 0 1.01Zm-5.245 0c-.483.279-1.266.279-1.748 0-.483-.278-.483-.73 0-1.009.482-.279 1.265-.279 1.748 0 .483.279.483.73 0 1.01Zm1.748 2.019c.483.279 1.266.279 1.748 0 .483-.279.483-.73 0-1.01-.482-.278-1.265-.278-1.748 0-.483.28-.483.731 0 1.01Zm-5.245 0c-.482.279-1.265.279-1.748 0-.483-.279-.483-.73 0-1.01.483-.278 1.266-.278 1.748 0 .483.28.483.731 0 1.01Zm1.749 2.018c.482.279 1.265.279 1.748 0 .483-.278.483-.73 0-1.009-.483-.279-1.266-.279-1.748 0-.483.279-.483.73 0 1.01Zm-5.245 0c-.483.279-1.266.279-1.748 0-.483-.278-.483-.73 0-1.009.482-.279 1.265-.279 1.748 0 .483.279.483.73 0 1.01Zm1.748 2.019c.483.279 1.266.279 1.748 0 .483-.279.483-.73 0-1.01-.482-.278-1.265-.278-1.748 0-.483.28-.483.731 0 1.01Zm-5.245 0c-.482.279-1.265.279-1.748 0-.483-.279-.483-.73 0-1.01.483-.278 1.266-.278 1.748 0 .483.28.483.731 0 1.01Zm1.749 2.018c.482.28 1.265.28 1.748 0 .483-.278.483-.73 0-1.009-.483-.279-1.266-.279-1.748 0-.483.279-.483.73 0 1.01Zm-5.245 0c-.483.28-1.266.28-1.748 0-.483-.278-.483-.73 0-1.009.482-.279 1.265-.279 1.748 0 .483.279.483.73 0 1.01Zm1.748 2.019c.483.279 1.266.279 1.748 0 .483-.279.483-.73 0-1.01-.482-.278-1.265-.278-1.748 0-.483.28-.483.731 0 1.01ZM11.406 51.19c-.483.279-1.266.279-1.748 0-.483-.279-.483-.73 0-1.01.482-.278 1.265-.278 1.748 0 .483.28.483.731 0 1.01Zm1.748 2.019c.483.278 1.265.278 1.748 0 .483-.279.483-.73 0-1.01-.482-.278-1.265-.278-1.748 0-.483.28-.483.731 0 1.01Zm5.245 2.018c-.483.279-1.266.279-1.748 0-.483-.279-.483-.73 0-1.01.482-.278 1.265-.278 1.748 0 .483.28.483.731 0 1.01Zm1.748 2.019c.483.278 1.266.278 1.748 0 .483-.279.483-.73 0-1.01-.482-.278-1.265-.278-1.748 0-.483.28-.483.731 0 1.01Zm5.245 2.018c-.483.279-1.266.279-1.748 0-.483-.278-.483-.73 0-1.009.482-.279 1.265-.279 1.748 0 .483.279.483.73 0 1.01Zm1.748 2.019c.483.279 1.266.279 1.748 0 .483-.279.483-.73 0-1.01-.482-.278-1.265-.278-1.748 0-.483.28-.483.731 0 1.01Zm5.245 2.018c-.483.279-1.266.279-1.748 0-.483-.278-.483-.73 0-1.009.482-.279 1.265-.279 1.748 0 .483.279.483.73 0 1.01Zm1.748 2.019c.483.279 1.266.279 1.748 0 .483-.279.483-.73 0-1.01-.482-.278-1.265-.278-1.748 0-.483.28-.483.731 0 1.01Zm5.245 2.018c-.483.28-1.266.28-1.748 0-.483-.278-.483-.73 0-1.009.482-.279 1.265-.279 1.748 0 .483.279.483.73 0 1.01Zm1.748 2.019c.483.279 1.266.279 1.748 0 .483-.279.483-.73 0-1.01-.482-.278-1.265-.278-1.748 0-.483.28-.483.731 0 1.01Zm5.245 2.018c-.483.28-1.266.28-1.748 0-.483-.278-.483-.73 0-1.009.482-.279 1.265-.279 1.748 0 .483.279.483.73 0 1.01ZM6.16 53.21c.483.278 1.266.278 1.748 0 .483-.279.483-.73 0-1.01-.482-.278-1.265-.278-1.748 0-.483.28-.483.731 0 1.01Zm5.245 2.018c-.483.279-1.266.279-1.748 0-.483-.279-.483-.73 0-1.01.482-.278 1.265-.278 1.748 0 .483.28.483.731 0 1.01Zm1.748 2.019c.483.278 1.265.278 1.748 0 .483-.279.483-.73 0-1.01-.482-.278-1.265-.278-1.748 0-.483.28-.483.731 0 1.01Zm5.245 2.018c-.483.279-1.266.279-1.748 0-.483-.278-.483-.73 0-1.009.482-.279 1.265-.279 1.748 0 .483.279.483.73 0 1.01Zm1.748 2.019c.483.279 1.266.279 1.748 0 .483-.279.483-.73 0-1.01-.482-.278-1.265-.278-1.748 0-.483.28-.483.731 0 1.01Zm5.245 2.018c-.483.279-1.266.279-1.748 0-.483-.278-.483-.73 0-1.009.482-.279 1.265-.279 1.748 0 .483.279.483.73 0 1.01Zm1.748 2.019c.483.279 1.266.279 1.748 0 .483-.279.483-.73 0-1.01-.482-.278-1.265-.278-1.748 0-.483.28-.483.731 0 1.01Zm5.245 2.018c-.483.28-1.266.28-1.748 0-.483-.278-.483-.73 0-1.009.482-.279 1.265-.279 1.748 0 .483.279.483.73 0 1.01Zm1.748 2.019c.483.279 1.266.279 1.748 0 .483-.279.483-.73 0-1.01-.482-.278-1.265-.278-1.748 0-.483.28-.483.731 0 1.01Zm5.245 2.018c-.483.28-1.266.28-1.748 0-.483-.278-.483-.73 0-1.009.482-.279 1.265-.279 1.748 0 .483.279.483.73 0 1.01Zm1.748 2.019c.483.279 1.266.279 1.748 0 .483-.279.483-.73 0-1.01-.482-.278-1.265-.278-1.748 0-.483.28-.483.731 0 1.01Z" fill="#1D3557"/></g><defs><filter id="a" x="-3.958" y=".042" width="91.916" height="91.916" filterUnits="userSpaceOnUse" color-interpolation-filters="sRGB"><feFlood flood-opacity="0" result="BackgroundImageFix"/><feColorMatrix in="SourceAlpha" values="0 0 0 0 0 0 0 0 0 0 0 0 0 0 0 0 0 0 127 0" result="hardAlpha"/><feOffset dy="4"/><feGaussianBlur stdDeviation="2"/><feColorMatrix values="0 0 0 0 0 0 0 0 0 0 0 0 0 0 0 0 0 0 0.25 0"/><feBlend in2="BackgroundImageFix" result="effect1_dropShadow"/><feBlend in="SourceGraphic" in2="effect1_dropShadow" result="shape"/></filter></defs></svg>
